X:1
T:Sand Hill Road, 11.11.11.11 D
T:Sand Hill Road, 11.11.11.11 D
T:R. A. Glenn, 1878
T:Public Domain Courtesy of the Cyber Hymnal™
C:R. A. Glenn, 1878
Z:Public Domain
Z:Courtesy of the Cyber Hymnal™
%%score ( 1 2 ) ( 3 4 )
L:1/8
M:2/2
K:Ab
V:1 treble 
V:2 treble 
V:3 bass 
V:4 bass 
V:1
 [CE]2 | [Ec]4 [EB]2 [FA]2 | [FB]4 [FA]2 [EG]2 | [DF]4 [FA]3 [DF] | [CE]6 [CE]2 | %5
 ([CA]2 [EB]2) [Ec]2 [Ed]2 | [Ee]4 [Ed]2 [Ec]2 | [Ec]4 [EB]2 [FA]2 | [GB]6 [GB]2 | %9
 [Ac]4 [EB]2 [EA]2 | [EB]4 [CA]2 [CA]2 | [EB]4 [EB]2 [Ec]2 | [Fd]6 [Fd]2 | [Ec]4 [Ec]2 [Ed]2 | %14
 [Ee]4 [EA]2 [FB]2 | [Ac]4 [GB]2 [GB]2 | A6 [EB]2 | [EB]4 [EB]2 [Ec]2 | [Ed]2 [Ec]2 [EB]4 | %19
 [Ec]4 [Ec]2 [Ed]2 | [Ee]6 [Ec]2 | [EB]4 [EB]2 [Ec]2 | [Ed]2 [Ec]2 [EB]2 [EB]2 | [Ec]4 [A=d]4 | %24
 [Ge]6 [Ac]2 | [Ec]4 [EB]2 [EA]2 | [FA]4 [EG]2 [DF]2 | [CE]4 [CA]2 [EB]2 | [Ec]6 [Ec]2 | %29
 B2 c2 [Ee]2 [Fd]2 | [Ec]4 [EA]2 [FB]2 | [Ec]4 [GB]2 [GB]2 | A6 |] %33
V:2
 x2 | x8 | x8 | x8 | x8 | x8 | x8 | x8 | x8 | x8 | x8 | x8 | x8 | x8 | x8 | x8 | A6 x2 | x8 | x8 | %19
 x8 | x8 | x8 | x8 | x8 | x8 | x8 | x8 | x8 | x8 | E4 x4 | x8 | x8 | A6 |] %33
V:3
 [A,,A,]2 | [A,,A,]4 [C,A,]2 [D,A,]2 | [D,D]4 [D,D]2 [D,A,]2 | [D,A,]4 [D,D]3 [D,A,] | %4
 [A,,A,]6 [A,,A,]2 | [A,,A,]4 [A,,A,]2 [A,,B,]2 | [A,,C]4 [A,,B,]2 [A,,A,]2 | A,4 [G,E]2 [F,=D]2 | %8
 [E,E]6 [E,E]2 | [A,,A,]4 [B,,G,]2 [C,A,]2 | [D,G,]4 [F,A,]2 [F,A,]2 | [E,G,]4 [E,G,]2 A,2 | %12
 [D,A,]6 [D,A,]2 | [A,,A,]4 [A,,A,]2 [A,,B,]2 | [A,,C]4 [C,A,]2 [D,D]2 | [E,A,]4 [E,E]2 [E,D]2 | %16
 [A,,C]6 [E,G,]2 | [E,G,]4 [E,G,]2 [E,A,]2 | [E,B,]2 [E,A,]2 [E,G,]4 | A,4 A,2 [A,B,]2 | %20
 [A,C]6 A,2 | [E,G,]4 [E,G,]2 [E,A,]2 | [E,B,]2 [E,A,]2 [E,G,]2 [E,G,]2 | A,4 [F,=D]4 | %24
 [E,B,]6 [A,,A,]2 | [A,,A,]4 [B,,G,]2 [C,A,]2 | [D,A,]4 [D,A,]2 [D,A,]2 | %27
 [A,,A,]4 [A,,A,]2 [A,,A,]2 | [A,,A,]6 [A,,A,]2 | G,2 A,2 [A,,C]2 [A,,A,]2 | %30
 [A,,A,]4 [C,A,]2 [D,D]2 | [E,A,]4 [E,E]2 [E,D]2 | [A,,C]6 |] %33
V:4
 x2 | x8 | x8 | x8 | x8 | x8 | x8 | A,4 x4 | x8 | x8 | x8 | x6 A,2 | x8 | x8 | x8 | x8 | x8 | x8 | %18
 x8 | A,4 A,2 x2 | x6 A,2 | x8 | x8 | A,4 x4 | x8 | x8 | x8 | x8 | x8 | A,,4 x4 | x8 | x8 | x6 |] %33

